svgs/sharp-regular/file-signature.svg

<svg xmlns="http://www.w3.org/2000/svg" viewBox="0 0 576 512"><!--! Font Awesome Pro 6.6.0 by @fontawesome - https://fontawesome.com License - https://fontawesome.com/license (Commercial License) Copyright 2024 Fonticons, Inc. --><path d="M336 435.3l0 28.7L48 464 48 48l176 0 0 112 112 0 0 84.4 48-48 0-68.4L256 0 48 0 0 0 0 48 0 464l0 48 48 0 288 0 48 0 0-48 0-37-1.7 1.7L336 435.3zM152 304l-11.9 0-3.4 11.4L116.1 384 96 384l-16 0 0 32 16 0 32 0 11.9 0 3.4-11.4L160 349l16.7 55.6 3.4 11.4 11.9 0 8 0 9.9 0 4.4-8.8L225.9 384l12.2 0 11.6 23.2 4.4 8.8 9.9 0 16 0 1.6 0 6.4 0 .1-.1L370.9 404 512.1 262.7l-71-71L299.9 333l-7.3 51-11 0-1.6 0-6.1 0-11.6-23.2-4.4-8.8-9.9 0-32 0-9.9 0-4.4 8.8-3 5.9-15.4-51.4L179.9 304 168 304l-16 0zM576 198.8l-71-71-41.3 41.3 71 71L576 198.8z"/></svg>

<svg xmlns="http://www.w3.org/2000/svg" viewBox="0 0 576 512"><!--! Font Awesome Pro 6.4.0 by @fontawesome - https://fontawesome.com License - https://fontawesome.com/license (Commercial License) Copyright 2023 Fonticons, Inc. --><path d="M336 435.3V464H48V48H224V160H336v84.4l48-48V128L256 0H48 0V48 464v48H48 336h48V464 427l-1.7 1.7L336 435.3zM152 304H140.1l-3.4 11.4L116.1 384H96 80v32H96h32 11.9l3.4-11.4L160 349l16.7 55.6 3.4 11.4H192h8 9.9l4.4-8.8L225.9 384h12.2l11.6 23.2 4.4 8.8H264h16 1.6H288l.1-.1L370.9 404 512.1 262.7l-71-71L299.9 333l-7.3 51h-11H280h-6.1l-11.6-23.2-4.4-8.8H248 216h-9.9l-4.4 8.8-3 5.9-15.4-51.4L179.9 304H168 152zM576 198.8l-71-71-41.3 41.3 71 71L576 198.8z"/></svg>
